app/assets/images/heroicons/outline/document-currency-bangladeshi.svg

<svg width="24" height="24" viewBox="0 0 24 24" fill="none" xmlns="http://www.w3.org/2000/svg">
<path d="M19.5 14.25V11.625C19.5 9.76104 17.989 8.25 16.125 8.25H14.625C14.0037 8.25 13.5 7.74632 13.5 7.125V5.625C13.5 3.76104 11.989 2.25 10.125 2.25H8.25M8.25 10.5L8.46967 10.2803C8.94214 9.80786 9.75 10.1425 9.75 10.8107V17.251C9.75 17.7227 9.96398 18.1849 10.3899 18.3877C10.8778 18.62 11.4237 18.75 12 18.75C13.4917 18.75 14.7799 17.8791 15.384 16.6179C15.5888 16.1903 15.2316 15.7501 14.7574 15.7501H14.25M8.25 13.5H15.75M10.5 2.25H5.625C5.00368 2.25 4.5 2.75368 4.5 3.375V20.625C4.5 21.2463 5.00368 21.75 5.625 21.75H18.375C18.9963 21.75 19.5 21.2463 19.5 20.625V11.25C19.5 6.27944 15.4706 2.25 10.5 2.25Z" stroke="black" stroke-width="1.5" stroke-linecap="round" stroke-linejoin="round"/>
</svg>

<svg xmlns="http://www.w3.org/2000/svg" fill="none" viewBox="0 0 24 24" stroke-width="1.5" stroke="currentColor" aria-hidden="true" data-slot="icon">
  <path stroke-linecap="round" stroke-linejoin="round" d="M19.5 14.25v-2.625a3.375 3.375 0 0 0-3.375-3.375h-1.5A1.125 1.125 0 0 1 13.5 7.125v-1.5a3.375 3.375 0 0 0-3.375-3.375H8.25m0 8.25.22-.22a.75.75 0 0 1 1.28.53v6.441c0 .472.214.934.64 1.137a3.75 3.75 0 0 0 4.994-1.77c.205-.428-.152-.868-.627-.868h-.507m-6-2.25h7.5M10.5 2.25H5.625c-.621 0-1.125.504-1.125 1.125v17.25c0 .621.504 1.125 1.125 1.125h12.75c.621 0 1.125-.504 1.125-1.125V11.25a9 9 0 0 0-9-9Z"/>
</svg>
